public/images/icons/wiki/alchemist.svg

<svg fill="none" height="330" width="330" xmlns="http://www.w3.org/2000/svg"><g fill="none" stroke="#eee" stroke-linecap="square" stroke-width="12"><path d="m150 45v75m30-75v75m-30 0a75 30 0 0 0 -75 30m105-30a45 30 0 0 1 45 30m-75-75q0 30-75 90m105-75q90 0 75 105m-75-150v75m-30-75v75m30 0a75 30 0 0 1 75 30m-105-30a45 30 0 0 0 -45 30m75-75q0 30 75 90m-105-75q-90 0-75 105" transform="matrix(-.5 -.8660254 .8660254 -.5 104.605808 390.394192)"/><path d="m150 45v75m30-75v75m-30 0a75 30 0 0 0 -75 30m105-30a45 30 0 0 1 45 30m-75-75q0 30-75 90m105-75q90 0 75 105m-75-150v75m-30-75v75m30 0a75 30 0 0 1 75 30m-105-30a45 30 0 0 0 -45 30m75-75q0 30 75 90m-105-75q-90 0-75 105" transform="matrix(-.5 .8660254 -.8660254 -.5 390.394192 104.605808)"/><path d="m150 45v75m30-75v75m-30 0a75 30 0 0 0 -75 30m105-30a45 30 0 0 1 45 30m-75-75q0 30-75 90m105-75q90 0 75 105m-75-150v75m-30-75v75m30 0a75 30 0 0 1 75 30m-105-30a45 30 0 0 0 -45 30m75-75q0 30 75 90m-105-75q-90 0-75 105"/></g></svg>

<svg xmlns="http://www.w3.org/2000/svg" baseProfile="full" version="1.1" width="330px" height="330px" style="fill: none; width: 330px; height: 330px;"><path d="M150,45 L150,45 L150,120 M180,45 L180,45 L180,120 M150,120 A75,30 0 0,0 75,150 M180,120 A45,30 0 0,1 225,150 M150,75 Q150,105 75,165 M180,90 Q270,90 255,195 M180,45 L180,45 L180,120 M150,45 L150,45 L150,120 M180,120 A75,30 0 0,1 255,150 M150,120 A45,30 0 0,0 105,150 M180,75 Q180,105 255,165 M150,90 Q60,90 75,195 " style="stroke-width: 12; stroke-linecap: square; stroke-linejoin: miter; stroke: rgb(238, 238, 238); fill: none;" transform="rotate(240 165 165)"/><path d="M150,45 L150,45 L150,120 M180,45 L180,45 L180,120 M150,120 A75,30 0 0,0 75,150 M180,120 A45,30 0 0,1 225,150 M150,75 Q150,105 75,165 M180,90 Q270,90 255,195 M180,45 L180,45 L180,120 M150,45 L150,45 L150,120 M180,120 A75,30 0 0,1 255,150 M150,120 A45,30 0 0,0 105,150 M180,75 Q180,105 255,165 M150,90 Q60,90 75,195 " style="stroke-width: 12; stroke-linecap: square; stroke-linejoin: miter; stroke: rgb(238, 238, 238); fill: none;" transform="rotate(120 165 165)"/><path d="M150,45 L150,45 L150,120 M180,45 L180,45 L180,120 M150,120 A75,30 0 0,0 75,150 M180,120 A45,30 0 0,1 225,150 M150,75 Q150,105 75,165 M180,90 Q270,90 255,195 M180,45 L180,45 L180,120 M150,45 L150,45 L150,120 M180,120 A75,30 0 0,1 255,150 M150,120 A45,30 0 0,0 105,150 M180,75 Q180,105 255,165 M150,90 Q60,90 75,195 " style="stroke-width: 12; stroke-linecap: square; stroke-linejoin: miter; stroke: rgb(238, 238, 238); fill: none;" transform="rotate(0 165 165)"/></svg>
